openframe-frontend-core/src/components/icons-v2/brand-logos/linkedin-square.svg

<svg width="24" height="24" viewBox="0 0 24 24" fill="none" xmlns="http://www.w3.org/2000/svg">
<path d="M19.875 6C19.875 4.96447 19.0355 4.125 18 4.125H6C4.96447 4.125 4.125 4.96447 4.125 6V18C4.125 19.0355 4.96447 19.875 6 19.875H18C19.0355 19.875 19.875 19.0355 19.875 18V6ZM22.125 18C22.125 20.2782 20.2782 22.125 18 22.125H6C3.72183 22.125 1.875 20.2782 1.875 18V6C1.875 3.72183 3.72183 1.875 6 1.875H18C20.2782 1.875 22.125 3.72183 22.125 6V18Z" fill="#888888"/>
<path d="M5.875 16.9993V10.0003C5.875 9.37894 6.37868 8.87526 7 8.87526C7.62132 8.87526 8.125 9.37894 8.125 10.0003V16.9993C8.125 17.6206 7.62132 18.1243 7 18.1243C6.37868 18.1243 5.875 17.6206 5.875 16.9993ZM15.8755 16.9993V13.0003C15.8755 11.9649 15.0358 11.1255 14.0005 11.1253C13.0296 11.1253 12.2302 11.8628 12.1343 12.8084L12.1255 13.0003V16.9993C12.1255 17.6204 11.6216 18.124 11.0005 18.1243C10.3792 18.1243 9.87549 17.6206 9.87549 16.9993V10.0003C9.87549 9.37894 10.3792 8.87526 11.0005 8.87526C11.4075 8.87544 11.7611 9.0933 11.9585 9.41726C12.5607 9.07337 13.2574 8.87526 14.0005 8.87526C16.2784 8.87553 18.1255 10.7223 18.1255 13.0003V16.9993C18.1255 17.6204 17.6216 18.124 17.0005 18.1243C16.3792 18.1243 15.8755 17.6206 15.8755 16.9993ZM5.875 7.00026V6.99001C5.875 6.36869 6.37868 5.86501 7 5.86501C7.62132 5.86501 8.125 6.36869 8.125 6.99001V7.00026C8.12486 7.62147 7.62124 8.12526 7 8.12526C6.37876 8.12526 5.87514 7.62147 5.875 7.00026Z" fill="#888888"/>
</svg>

<svg xmlns="http://www.w3.org/2000/svg" width="24" height="24" fill="none" viewBox="0 0 24 24">
  <path fill="#888" d="M19.875 6c0-1.036-.84-1.875-1.875-1.875H6c-1.036 0-1.875.84-1.875 1.875v12c0 1.035.84 1.875 1.875 1.875h12c1.035 0 1.875-.84 1.875-1.875V6Zm2.25 12A4.125 4.125 0 0 1 18 22.125H6A4.125 4.125 0 0 1 1.875 18V6A4.125 4.125 0 0 1 6 1.875h12A4.125 4.125 0 0 1 22.125 6v12Z"/>
  <path fill="#888" d="M5.875 17v-7a1.125 1.125 0 1 1 2.25 0v7a1.125 1.125 0 0 1-2.25 0Zm10 0v-4a1.875 1.875 0 0 0-3.74-.192l-.01.192v4a1.125 1.125 0 0 1-2.25 0v-7c0-.621.504-1.125 1.126-1.125.407 0 .76.218.958.542A4.125 4.125 0 0 1 18.126 13v4a1.125 1.125 0 0 1-2.25 0Zm-10-10v-.01a1.125 1.125 0 0 1 2.25 0V7a1.125 1.125 0 0 1-2.25 0Z"/>
</svg>
